icons/hexagon-chevron-right.svg

<svg xmlns="http://www.w3.org/2000/svg" width="24" height="24" viewBox="0 0 24 24">
  <path d="M16.3173342,1 C17.0224657,1 17.6754933,1.37131518 18.0360686,1.97728201 L23.3914405,10.977282 C23.7664613,11.6075253 23.7664613,12.3924747 23.3914405,13.022718 L18.0360686,22.022718 C17.6754933,22.6286848 17.0224657,23 16.3173342,23 L7.68266576,23 C6.97753431,23 6.32450667,22.6286848 5.96393136,22.022718 L0.608559463,13.022718 C0.233538656,12.3924747 0.233538656,11.6075253 0.608559463,10.977282 L5.96393136,1.97728201 C6.32450667,1.37131518 6.97753431,1 7.68266576,1 L16.3173342,1 Z M9.29289322,7.29289322 C8.93240926,7.65337718 8.90467972,8.22060824 9.20970461,8.61289944 L9.29289322,8.70710678 L12.585,12 L9.29289322,15.2928932 C8.93240926,15.6533772 8.90467972,16.2206082 9.20970461,16.6128994 L9.29289322,16.7071068 C9.65337718,17.0675907 10.2206082,17.0953203 10.6128994,16.7902954 L10.7071068,16.7071068 L14.7071068,12.7071068 C15.0675907,12.3466228 15.0953203,11.7793918 14.7902954,11.3871006 L14.7071068,11.2928932 L10.7071068,7.29289322 C10.3165825,6.90236893 9.68341751,6.90236893 9.29289322,7.29289322 Z"/>
</svg>

<svg xmlns="http://www.w3.org/2000/svg" viewBox="0 0 24 24">
  <path d="M16.32 1a2 2 0 0 1 1.72.98l5.35 9a2 2 0 0 1 0 2.04l-5.35 9a2 2 0 0 1-1.72.98H7.68a2 2 0 0 1-1.72-.98l-5.35-9a2 2 0 0 1 0-2.04l5.35-9A2 2 0 0 1 7.68 1h8.64zM9.29 7.3a1 1 0 0 0-.08 1.31l.08.1L12.6 12l-3.3 3.3a1 1 0 0 0-.08 1.31l.08.1a1 1 0 0 0 1.32.08l.1-.08 4-4a1 1 0 0 0 .08-1.32l-.08-.1-4-4a1 1 0 0 0-1.42 0z"/>
</svg>
